src/img/icons/blog4.svg

<svg 
 xmlns="http://www.w3.org/2000/svg"
 xmlns:xlink="http://www.w3.org/1999/xlink"
 width="18px" height="20px">
<defs>
<filter id="Filter_0">
    <feFlood flood-color="rgb(255, 255, 255)" flood-opacity="1" result="floodOut" />
    <feComposite operator="atop" in="floodOut" in2="SourceGraphic" result="compOut" />
    <feBlend mode="normal" in="compOut" in2="SourceGraphic" />
</filter>

</defs>
<g filter="url(#Filter_0)">
<path fill-rule="evenodd"  fill="rgb(0, 0, 0)"
 d="M1.205,20.000 L16.795,20.000 C17.459,20.000 18.002,19.426 18.002,18.726 L18.002,1.273 C18.002,0.573 17.459,-0.001 16.795,-0.001 L1.205,-0.001 C0.539,-0.001 -0.003,0.573 -0.003,1.273 L-0.003,18.726 C-0.003,19.426 0.539,20.000 1.205,20.000 ZM15.057,1.557 C15.057,1.346 15.222,1.175 15.420,1.175 L16.551,1.175 C16.751,1.175 16.913,1.346 16.913,1.557 L16.913,2.787 C16.913,2.999 16.751,3.170 16.551,3.170 L15.420,3.170 C15.222,3.170 15.057,2.999 15.057,2.787 L15.057,1.557 ZM15.057,4.688 C15.057,4.476 15.222,4.305 15.420,4.305 L16.551,4.305 C16.751,4.305 16.913,4.476 16.913,4.688 L16.913,5.918 C16.913,6.129 16.751,6.301 16.551,6.301 L15.420,6.301 C15.222,6.301 15.057,6.129 15.057,5.918 L15.057,4.688 ZM15.057,7.820 C15.057,7.609 15.222,7.437 15.420,7.437 L16.551,7.437 C16.751,7.437 16.913,7.609 16.913,7.820 L16.913,9.051 C16.913,9.260 16.751,9.433 16.551,9.433 L15.420,9.433 C15.222,9.433 15.057,9.260 15.057,9.051 L15.057,7.820 ZM15.057,10.950 C15.057,10.739 15.222,10.567 15.420,10.567 L16.551,10.567 C16.751,10.567 16.913,10.739 16.913,10.950 L16.913,12.181 C16.913,12.393 16.751,12.564 16.551,12.564 L15.420,12.564 C15.222,12.564 15.057,12.393 15.057,12.181 L15.057,10.950 ZM15.057,14.081 C15.057,13.870 15.222,13.698 15.420,13.698 L16.551,13.698 C16.751,13.698 16.913,13.870 16.913,14.081 L16.913,15.312 C16.913,15.522 16.751,15.693 16.551,15.693 L15.420,15.693 C15.222,15.693 15.057,15.522 15.057,15.312 L15.057,14.081 ZM15.057,17.211 C15.057,17.001 15.222,16.829 15.420,16.829 L16.551,16.829 C16.751,16.829 16.913,17.001 16.913,17.211 L16.913,18.444 C16.913,18.653 16.751,18.825 16.551,18.825 L15.420,18.825 C15.222,18.825 15.057,18.654 15.057,18.444 L15.057,17.211 ZM4.183,2.481 C4.183,2.269 4.346,2.099 4.546,2.099 L13.454,2.099 C13.652,2.099 13.816,2.269 13.816,2.481 L13.816,8.574 C13.816,8.784 13.652,8.957 13.454,8.957 L4.546,8.957 C4.346,8.957 4.183,8.784 4.183,8.574 L4.183,2.481 ZM4.183,11.877 C4.183,11.667 4.346,11.496 4.546,11.496 L13.454,11.496 C13.652,11.496 13.816,11.667 13.816,11.877 L13.816,17.510 C13.816,17.720 13.652,17.892 13.454,17.892 L4.546,17.892 C4.346,17.892 4.183,17.720 4.183,17.510 L4.183,11.877 ZM1.086,1.557 C1.086,1.346 1.248,1.175 1.448,1.175 L2.580,1.175 C2.779,1.175 2.941,1.346 2.941,1.557 L2.941,2.787 C2.941,2.999 2.779,3.170 2.580,3.170 L1.448,3.170 C1.248,3.170 1.086,2.999 1.086,2.787 L1.086,1.557 ZM1.086,4.688 C1.086,4.476 1.248,4.305 1.448,4.305 L2.580,4.305 C2.779,4.305 2.941,4.476 2.941,4.688 L2.941,5.918 C2.941,6.129 2.779,6.301 2.580,6.301 L1.448,6.301 C1.248,6.301 1.086,6.129 1.086,5.918 L1.086,4.688 ZM1.086,7.820 C1.086,7.609 1.248,7.437 1.448,7.437 L2.580,7.437 C2.779,7.437 2.941,7.609 2.941,7.820 L2.941,9.051 C2.941,9.260 2.779,9.433 2.580,9.433 L1.448,9.433 C1.248,9.433 1.086,9.260 1.086,9.051 L1.086,7.820 ZM1.086,10.950 C1.086,10.739 1.248,10.567 1.448,10.567 L2.580,10.567 C2.779,10.567 2.941,10.739 2.941,10.950 L2.941,12.181 C2.941,12.393 2.779,12.564 2.580,12.564 L1.448,12.564 C1.248,12.564 1.086,12.393 1.086,12.181 L1.086,10.950 ZM1.086,14.081 C1.086,13.870 1.248,13.698 1.448,13.698 L2.580,13.698 C2.779,13.698 2.941,13.870 2.941,14.081 L2.941,15.312 C2.941,15.522 2.779,15.693 2.580,15.693 L1.448,15.693 C1.248,15.693 1.086,15.522 1.086,15.312 L1.086,14.081 ZM1.086,17.211 C1.086,17.001 1.248,16.829 1.448,16.829 L2.580,16.829 C2.779,16.829 2.941,17.001 2.941,17.211 L2.941,18.444 C2.941,18.653 2.779,18.825 2.580,18.825 L1.448,18.825 C1.248,18.825 1.086,18.654 1.086,18.444 L1.086,17.211 Z"/>
</g>
</svg>

<svg xmlns="http://www.w3.org/2000/svg" width="18" height="20"><defs><filter id="a"><feFlood flood-color="#FFF" flood-opacity="1" result="floodOut"/><feComposite operator="atop" in="floodOut" in2="SourceGraphic" result="compOut"/><feBlend in="compOut" in2="SourceGraphic"/></filter></defs><g filter="url(#a)"><path fill-rule="evenodd" d="M1.2 20h15.6c.66 0 1.2-.57 1.2-1.27V1.27C18 .57 17.46 0 16.8 0H1.2C.55 0 0 .57 0 1.27v17.46C0 19.43.54 20 1.2 20zM15.06 1.56c0-.21.16-.39.36-.39h1.13c.2 0 .36.18.36.39v1.23c0 .2-.16.38-.36.38h-1.13a.37.37 0 01-.36-.38V1.56zm0 3.13c0-.21.16-.39.36-.39h1.13c.2 0 .36.18.36.39v1.23c0 .2-.16.38-.36.38h-1.13a.38.38 0 01-.36-.38V4.69zm0 3.13c0-.21.16-.38.36-.38h1.13c.2 0 .36.17.36.38v1.23c0 .21-.16.38-.36.38h-1.13a.38.38 0 01-.36-.38V7.82zm0 3.13c0-.21.16-.38.36-.38h1.13c.2 0 .36.17.36.38v1.23c0 .21-.16.38-.36.38h-1.13a.37.37 0 01-.36-.38v-1.23zm0 3.13c0-.21.16-.38.36-.38h1.13c.2 0 .36.17.36.38v1.23c0 .21-.16.38-.36.38h-1.13a.37.37 0 01-.36-.38v-1.23zm0 3.13c0-.2.16-.38.36-.38h1.13c.2 0 .36.17.36.38v1.23c0 .21-.16.38-.36.38h-1.13a.37.37 0 01-.36-.38v-1.23zM4.18 2.48c0-.21.17-.38.37-.38h8.9c.2 0 .37.17.37.38v6.1c0 .2-.17.38-.37.38h-8.9a.37.37 0 01-.37-.39V2.48zm0 9.4c0-.21.17-.38.37-.38h8.9c.2 0 .37.17.37.38v5.63c0 .21-.17.38-.37.38h-8.9a.37.37 0 01-.37-.38v-5.63zM1.08 1.56c0-.21.17-.39.37-.39h1.13c.2 0 .36.18.36.39v1.23c0 .2-.16.38-.36.38H1.45a.37.37 0 01-.36-.38V1.56zm0 3.13c0-.21.17-.39.37-.39h1.13c.2 0 .36.18.36.39v1.23c0 .2-.16.38-.36.38H1.45a.37.37 0 01-.36-.38V4.69zm0 3.13c0-.21.17-.38.37-.38h1.13c.2 0 .36.17.36.38v1.23c0 .21-.16.38-.36.38H1.45c-.2 0-.36-.17-.36-.38V7.82zm0 3.13c0-.21.17-.38.37-.38h1.13c.2 0 .36.17.36.38v1.23c0 .21-.16.38-.36.38H1.45a.37.37 0 01-.36-.38v-1.23zm0 3.13c0-.21.17-.38.37-.38h1.13c.2 0 .36.17.36.38v1.23c0 .21-.16.38-.36.38H1.45a.37.37 0 01-.36-.38v-1.23zm0 3.13c0-.2.17-.38.37-.38h1.13c.2 0 .36.17.36.38v1.23c0 .21-.16.38-.36.38H1.45a.37.37 0 01-.36-.38v-1.23z"/></g></svg>
